desktop/resources/assets/wand.svg

<svg width="16" height="16" viewBox="0 0 16 16" fill="none" xmlns="http://www.w3.org/2000/svg">
<path d="M13.5 1C13.7761 1 14 1.22386 14 1.5V2H14.5C14.7761 2 15 2.22386 15 2.5C15 2.77614 14.7761 3 14.5 3H14V3.5C14 3.77614 13.7761 4 13.5 4C13.2239 4 13 3.77614 13 3.5V3H12.5C12.2239 3 12 2.77614 12 2.5C12 2.22386 12.2239 2 12.5 2H13V1.5C13 1.22386 13.2239 1 13.5 1ZM3.5 3C3.77615 3 4 3.22386 4 3.5V4H4.5C4.77615 4 5 4.22386 5 4.5C5 4.77614 4.77615 5 4.5 5H4V5.5C4 5.77614 3.77615 6 3.5 6C3.22386 6 3 5.77614 3 5.5V5H2.5C2.22386 5 2 4.77614 2 4.5C2 4.22386 2.22386 4 2.5 4H3V3.5C3 3.22386 3.22386 3 3.5 3ZM12.5 12C12.7761 12 13 11.7761 13 11.5C13 11.2239 12.7761 11 12.5 11H12V10.5C12 10.2239 11.7761 10 11.5 10C11.2239 10 11 10.2239 11 10.5V11H10.5C10.2239 11 10 11.2239 10 11.5C10 11.7761 10.2239 12 10.5 12H11V12.5C11 12.7761 11.2239 13 11.5 13C11.7761 13 12 12.7761 12 12.5V12H12.5ZM8.72956 4.56346C9.4771 3.81592 10.6891 3.81592 11.4367 4.56347C12.1842 5.31102 12.1842 6.52303 11.4367 7.27058L4.26679 14.4404C3.51924 15.1879 2.30723 15.1879 1.55968 14.4404C0.812134 13.6928 0.812138 12.4808 1.55969 11.7333L8.72956 4.56346ZM8.25002 6.4572L2.26679 12.4404C1.90977 12.7974 1.90977 13.3763 2.26679 13.7333C2.62381 14.0903 3.20266 14.0903 3.55968 13.7333L9.54292 7.75009L8.25002 6.4572ZM10.25 7.04299L10.7295 6.56347C11.0866 6.20645 11.0866 5.6276 10.7296 5.27057C10.3725 4.91355 9.79368 4.91355 9.43666 5.27057L8.95713 5.7501L10.25 7.04299Z" fill="#888"/>
</svg>

<svg xmlns="http://www.w3.org/2000/svg" width="16" height="16" fill="none"><path fill="#888" d="M13.5 1a.5.5 0 0 1 .5.5V2h.5a.5.5 0 0 1 0 1H14v.5a.5.5 0 0 1-1 0V3h-.5a.5.5 0 0 1 0-1h.5v-.5a.5.5 0 0 1 .5-.5m-10 2a.5.5 0 0 1 .5.5V4h.5a.5.5 0 1 1 0 1H4v.5a.5.5 0 1 1-1 0V5h-.5a.5.5 0 0 1 0-1H3v-.5a.5.5 0 0 1 .5-.5m9 9a.5.5 0 0 0 0-1H12v-.5a.5.5 0 0 0-1 0v.5h-.5a.5.5 0 0 0 0 1h.5v.5a.5.5 0 0 0 1 0V12zM8.73 4.563a1.914 1.914 0 0 1 2.707 2.708l-7.17 7.17a1.914 1.914 0 0 1-2.707-2.708zm-.48 1.894L2.267 12.44a.914.914 0 0 0 1.293 1.293L9.543 7.75zm2 .586.48-.48a.914.914 0 1 0-1.293-1.292l-.48.48z"/></svg>
